svg/fluentui-system-icons/ic_fluent_align_bottom_20_regular.svg

<svg width="20" height="20" viewBox="0 0 20 20" fill="none" xmlns="http://www.w3.org/2000/svg">
<path d="M2 16.5C2 16.7761 2.22386 17 2.5 17H17.5C17.7761 17 18 16.7761 18 16.5C18 16.2239 17.7761 16 17.5 16H2.5C2.22386 16 2 16.2239 2 16.5ZM11 13C11 14.1046 11.8954 15 13 15H14C15.1046 15 16 14.1046 16 13V8C16 6.89543 15.1046 6 14 6H13C11.8954 6 11 6.89543 11 8V13ZM13 14C12.4477 14 12 13.5523 12 13V8C12 7.44771 12.4477 7 13 7H14C14.5523 7 15 7.44771 15 8V13C15 13.5523 14.5523 14 14 14H13ZM6 15C4.89543 15 4 14.1046 4 13L4 5C4 3.89543 4.89543 3 6 3H7C8.10457 3 9 3.89543 9 5L9 13C9 14.1046 8.10457 15 7 15H6ZM5 13C5 13.5523 5.44772 14 6 14H7C7.55228 14 8 13.5523 8 13L8 5C8 4.44771 7.55228 4 7 4H6C5.44771 4 5 4.44772 5 5L5 13Z" fill="#212121"/>
</svg>

<svg xmlns="http://www.w3.org/2000/svg" width="20" height="20"><path d="M2 16.5a.5.5 0 0 0 .5.5h15a.5.5 0 0 0 0-1h-15a.5.5 0 0 0-.5.5Zm9-3.5a2 2 0 0 0 2 2h1a2 2 0 0 0 2-2V8a2 2 0 0 0-2-2h-1a2 2 0 0 0-2 2v5Zm2 1a1 1 0 0 1-1-1V8a1 1 0 0 1 1-1h1a1 1 0 0 1 1 1v5a1 1 0 0 1-1 1h-1Zm-7 1a2 2 0 0 1-2-2V5a2 2 0 0 1 2-2h1a2 2 0 0 1 2 2v8a2 2 0 0 1-2 2H6Zm-1-2a1 1 0 0 0 1 1h1a1 1 0 0 0 1-1V5a1 1 0 0 0-1-1H6a1 1 0 0 0-1 1v8Z"/></svg>
